src/media/icons/methodology/Html5.svg

<?xml version="1.0" encoding="UTF-8"?>
<svg width="80px" height="80px" viewBox="0 0 80 80" version="1.1" xmlns="http://www.w3.org/2000/svg" xmlns:xlink="http://www.w3.org/1999/xlink">
    <title>01 Base / Ic / Html5</title>
    <g id="01-Base-/-Ic-/-Html5" stroke="none" stroke-width="1" fill="none" fill-rule="evenodd">
        <g id="html-5" transform="translate(11.000000, 0.000000)" fill-rule="nonzero">
            <polygon id="Path" fill="#E44D26" points="56.6774026 15.7212457 51.5142244 73.5623494 28.3053594 79.9964946 5.16047589 73.5712357 0.00262943565 15.7212457"></polygon>
            <polygon id="Path" fill="#F16529" points="28.340016 75.0783568 47.0939431 69.8791889 51.5060045 20.4512155 28.340016 20.4512155"></polygon>
            <path d="M18.3029095,34.6415693 L28.340016,34.6415693 L28.340016,27.5465035 L10.5489225,27.5465035 L10.7186514,29.4499548 L12.4625931,49.0020962 L28.340016,49.0020962 L28.340016,41.9070304 L18.9513892,41.9070304 L18.3029095,34.6415693 L18.3029095,34.6415693 Z M19.9020041,52.5497401 L12.7796128,52.5497401 L13.7735485,63.6900842 L28.3073588,67.7244767 L28.340016,67.7155904 L28.340016,60.3337184 L28.3089139,60.3419383 L20.4071918,58.2083311 L19.9020041,52.5497401 L19.9020041,52.5497401 Z" id="Shape" fill="#EBEBEB"></path>
            <path d="M5.27555383,0 L8.88118108,0 L8.88118108,3.56230641 L12.1795636,3.56230641 L12.1795636,0 L15.785413,0 L15.785413,10.7875569 L12.1797857,10.7875569 L12.1797857,7.17526489 L8.88140324,7.17526489 L8.88140324,10.7875569 L5.27577599,10.7875569 L5.27577599,0 L5.27555383,0 Z M20.5267129,3.57741317 L17.3529611,3.57741317 L17.3529611,0 L27.3087578,0 L27.3087578,3.57741317 L24.1330066,3.57741317 L24.1330066,10.7875569 L20.5273793,10.7875569 L20.5273793,3.57741317 L20.5271572,3.57741317 L20.5267129,3.57741317 Z M28.8887467,0 L32.6483296,0 L34.9609963,3.79046286 L37.2714413,0 L41.0325793,0 L41.0325793,10.7875569 L37.4416145,10.7875569 L37.4416145,5.44065382 L34.9609963,9.27621479 L34.898792,9.27621479 L32.4166186,5.44065382 L32.4166186,10.7875569 L28.8887467,10.7875569 L28.8887467,0 Z M42.8269509,0 L46.433689,0 L46.433689,7.2219181 L51.5042273,7.2219181 L51.5042273,10.7875569 L42.8267288,10.7875569 L42.8267288,0 L42.8269509,0 Z" id="Shape" fill="#000000"></path>
            <path d="M28.3155786,49.0020962 L37.0523934,49.0020962 L36.2286308,58.203888 L28.3153565,60.3397167 L28.3153565,67.7211444 L42.860719,63.6900842 L42.9673549,62.4913187 L44.6348742,43.8122589 L44.8079354,41.9070304 L28.3155786,41.9070304 L28.3155786,49.0020962 Z M28.3155786,34.6242409 L28.3155786,34.6415693 L45.4535271,34.6415693 L45.5957083,33.0469179 L45.9191706,29.4499548 L46.0886773,27.5465035 L28.3155786,27.5465035 L28.3155786,34.6244631 L28.3155786,34.6242409 Z" id="Shape" fill="#FFFFFF"></path>
        </g>
    </g>
</svg>

<?xml version="1.0" encoding="utf-8"?>
<!-- Generator: Adobe Illustrator 23.0.6, SVG Export Plug-In . SVG Version: 6.00 Build 0)  -->
<svg version="1.1" id="Calque_1" xmlns="http://www.w3.org/2000/svg" xmlns:xlink="http://www.w3.org/1999/xlink" x="0px" y="0px"
	 viewBox="0 0 80 80" style="enable-background:new 0 0 80 80;" xml:space="preserve">
<style type="text/css">
	.st0{fill:#7D1531;}
	.st1{fill:#F92A62;}
	.st2{fill:#FED4E0;}
	.st3{fill:#3E0A18;}
	.st4{fill:#FFFFFF;}
	.st5{fill:#3E3207;}
	.st6{fill:#7D650E;}
	.st7{fill:#BB9815;}
	.st8{fill:#F9CA1C;}
	.st9{fill:#FAD549;}
	.st10{fill:#FBDF77;}
	.st11{fill:#FDEAA4;}
	.st12{fill:#FEF4D2;}
	.st13{fill:#BB204A;}
	.st14{fill:#FA5581;}
	.st15{fill:#FB7FA1;}
	.st16{fill:#FDAAC0;}
</style>
<title>01 Base / Ic / Html5</title>
<g id="html-5" transform="translate(11.000000, 0.000000)">
	<polygon id="Path" class="st0" points="56.7,15.7 51.5,73.6 28.3,80 5.2,73.6 0,15.7 	"/>
	<polygon class="st1" points="28.3,75.1 47.1,69.9 51.5,20.5 28.3,20.5 	"/>
	<path id="Shape" class="st2" d="M18.3,34.6h10v-7.1H10.5l0.2,1.9L12.5,49h15.9v-7.1H19L18.3,34.6L18.3,34.6z M19.9,52.5h-7.1
		l1,11.1l14.5,4l0,0v-7.4l0,0l-7.9-2.1L19.9,52.5L19.9,52.5z"/>
	<path class="st3" d="M5.3,0h3.6v3.6h3.3V0h3.6v10.8h-3.6V7.2H8.9v3.6H5.3L5.3,0L5.3,0z M20.5,3.6h-3.2V0h10v3.6h-3.2v7.2h-3.6
		L20.5,3.6L20.5,3.6L20.5,3.6z M28.9,0h3.8L35,3.8L37.3,0H41v10.8h-3.6V5.4L35,9.3h-0.1l-2.5-3.8v5.3h-3.5V0z M42.8,0h3.6v7.2h5.1
		v3.6h-8.7L42.8,0L42.8,0z"/>
	<path class="st4" d="M28.3,49h8.7l-0.8,9.2l-7.9,2.1v7.4l14.5-4l0.1-1.2l1.7-18.7l0.2-1.9H28.3V49z M28.3,34.6L28.3,34.6l17.1,0
		l0.1-1.6l0.3-3.6l0.2-1.9H28.3V34.6L28.3,34.6z"/>
</g>
<rect x="-113.6" y="104.2" class="st5" width="25.7" height="25.7"/>
<rect x="-75.8" y="104.2" class="st6" width="25.7" height="25.7"/>
<rect x="-35.4" y="104.2" class="st7" width="25.7" height="25.7"/>
<rect x="-0.3" y="104.2" class="st8" width="25.7" height="25.7"/>
<rect x="34.9" y="104.2" class="st9" width="25.7" height="25.7"/>
<rect x="78.5" y="104.2" class="st10" width="25.7" height="25.7"/>
<rect x="117.8" y="104.2" class="st11" width="25.7" height="25.7"/>
<rect x="167.9" y="104.2" class="st12" width="25.7" height="25.7"/>
<rect x="-102.7" y="154.2" class="st3" width="25.7" height="25.7"/>
<rect x="-64.9" y="154.2" class="st0" width="25.7" height="25.7"/>
<rect x="-24.5" y="154.2" class="st13" width="25.7" height="25.7"/>
<rect x="10.6" y="154.2" class="st1" width="25.7" height="25.7"/>
<rect x="45.8" y="154.2" class="st14" width="25.7" height="25.7"/>
<rect x="89.4" y="154.2" class="st15" width="25.7" height="25.7"/>
<rect x="128.7" y="154.2" class="st16" width="25.7" height="25.7"/>
<rect x="178.8" y="154.2" class="st2" width="25.7" height="25.7"/>
</svg>
